; generated by PrusaSlicer 2.5.0+win64 on 2023-01-12 at 14:38:35 UTC

; 

; external perimeters extrusion width = 0.45mm
; perimeters extrusion width = 0.45mm
; infill extrusion width = 0.45mm
; solid infill extrusion width = 0.45mm
; top infill extrusion width = 0.40mm
; support material extrusion width = 0.35mm
; first layer extrusion width = 0.42mm

; external perimeters extrusion width = 0.45mm
; perimeters extrusion width = 0.45mm
; infill extrusion width = 0.45mm
; solid infill extrusion width = 0.45mm
; top infill extrusion width = 0.40mm
; support material extrusion width = 0.35mm
; first layer extrusion width = 0.42mm

M73 P0 R25
M201 X9000 Y9000 Z500 E10000 ; sets maximum accelerations, mm/sec^2
M203 X500 Y500 Z12 E120 ; sets maximum feedrates, mm / sec
M204 P2000 R1500 T2000 ; sets acceleration (P, T) and retract acceleration (R), mm/sec^2
M205 X10.00 Y10.00 Z0.20 E2.50 ; sets the jerk limits, mm/sec
M205 S0 T0 ; sets the minimum extruding and travel feed rate, mm/sec
M107
;TYPE:Custom
M862.3 P "MK2S" ; printer model check
M862.1 P0.4 ; nozzle diameter check
M115 U3.2.3 ; tell printer latest fw version
G90 ; use absolute coordinates
M83 ; extruder relative mode
M204 S2000 T1500 ; MK2 firmware only supports the old M204 format
M104 S215 ; set extruder temp
M140 S60 ; set bed temp
M190 S60 ; wait for bed temp
M109 S215 ; wait for extruder temp
G28 W ; home all without mesh bed level
G80 ; mesh bed leveling
G1 Z0.2 F720
G1 Y-2 F1000 ; go outside print area
G92 E0
G1 X60 E9 F1000 ; intro line
G1 X100 E12.5 F1000 ; intro line
G92 E0
G21 ; set units to millimeters
G90 ; use absolute coordinates
M83 ; use relative distances for extrusion
M900 K0.05 ; Filament gcode LA 1.5
M900 K30 ; Filament gcode LA 1.0
M107
;LAYER_CHANGE
;Z:0.2
;HEIGHT:0.2
;BEFORE_LAYER_CHANGE
G92 E0.0
;0.2


G1 E-.8 F2100
G1 Z.4 F720
;AFTER_LAYER_CHANGE
;0.2
G1 X21.82 Y22.651 F10800
G1 Z.2 F720
G1 E.8 F2100
M204 S800
;TYPE:Skirt/Brim
;WIDTH:0.42
G1 F1200
G1 X22.297 Y22.192 E.02078
G1 X23.266 Y21.407 E.03911
G1 X24.717 Y20.427 E.0549
G1 X26.259 Y19.598 E.0549
G1 X27.802 Y18.955 E.0524
G1 X29.476 Y18.444 E.0549
G1 X31.194 Y18.104 E.05489
G1 X32.434 Y17.968 E.03911
G1 X75.712 Y15.887 E1.35853
G1 X77.388 Y16 E.05268
G1 X78.628 Y16.19 E.03932
G1 X80.261 Y16.584 E.05268
G1 X81.451 Y16.979 E.03932
G1 X82.995 Y17.642 E.05268
G1 X84.101 Y18.232 E.03932
G1 X85.512 Y19.144 E.05268
G1 X86.504 Y19.912 E.03932
G1 X87.741 Y21.049 E.05268
G1 X88.589 Y21.972 E.03932
G1 X89.618 Y23.301 E.05268
G1 X90.299 Y24.353 E.03932
G1 X91.089 Y25.836 E.05268
G1 X91.584 Y26.988 E.03932
G1 X92.114 Y28.583 E.05268
G1 X92.407 Y29.802 E.03932
G1 X92.662 Y31.462 E.05268
G1 X92.747 Y32.714 E.03932
G1 X92.718 Y34.393 E.05268
G1 X92.591 Y35.641 E.03932
G1 X92.281 Y37.292 E.05268
G1 X91.946 Y38.501 E.03932
G1 X91.363 Y40.076 E.05268
G1 X90.83 Y41.211 E.03932
G1 X89.989 Y42.666 E.05268
G1 X89.321 Y43.631 E.0368
G1 X88.537 Y44.61 E.03932
G1 X87.379 Y45.827 E.05268
G1 X86.442 Y46.66 E.03932
G1 X85.096 Y47.666 E.05268
G1 X84.032 Y48.329 E.03932
G1 X82.536 Y49.094 E.05268
G1 X81.304 Y49.595 E.0417
G1 X79.695 Y50.092 E.05281
G1 X78.049 Y50.431 E.05268
G1 X76.804 Y50.579 E.03932
G1 X34.688 Y52.647 E1.32212
G1 X33.017 Y52.661 E.0524
G1 X31.852 Y52.576 E.03661
G1 X29.554 Y52.171 E.07317
G1 X27.448 Y51.507 E.06923
G1 X25.665 Y50.702 E.06134
G1 X23.674 Y49.486 E.07317
G1 X21.863 Y48.014 E.07317
G1 X20.266 Y46.312 E.07317
G1 X18.953 Y44.48 E.07067
G1 X17.856 Y42.42 E.07317
M73 P1 R25
G1 X17.22 Y40.789 E.0549
G1 X16.78 Y39.224 E.05095
G1 X16.522 Y37.876 E.04305
G1 X16.35 Y36.133 E.0549
G1 X16.354 Y34.383 E.0549
G1 X16.534 Y32.641 E.0549
G1 X16.888 Y30.927 E.0549
G1 X17.414 Y29.256 E.0549
G1 X18.069 Y27.719 E.0524
G1 X18.911 Y26.184 E.0549
G1 X19.904 Y24.742 E.0549
G1 X21.036 Y23.406 E.05489
G1 X21.776 Y22.693 E.03224
M204 S1000
; printing object bubinek_BOTTOM.stl id:0 copy 0
;WIPE_START
G1 F8640
G1 X22.297 Y22.192 E-.16687
G1 X23.266 Y21.407 E-.28801
G1 X24.361 Y20.667 E-.30512
;WIPE_END
G1 E-.04 F2100
G1 Z.6 F720
G1 X34.101 Y25.286 F10800
G1 Z.2 F720
G1 E.8 F2100
M204 S800
;TYPE:Support material
G1 F1200
G1 X34.914 Y25.351 E.02557
G1 X35.711 Y25.481 E.0253
G1 X36.486 Y25.671 E.02503
G1 X36.879 Y25.794 E.01293
G1 X37.634 Y26.08 E.0253
G1 X38.002 Y26.245 E.01265
G1 X38.709 Y26.616 E.02503
G1 X39.398 Y27.052 E.02557
G1 X40.037 Y27.531 E.02503
G1 X40.351 Y27.798 E.01293
G1 X40.933 Y28.357 E.0253
G1 X41.468 Y28.961 E.0253
G1 X41.947 Y29.599 E.02503
G1 X42.175 Y29.943 E.01293
G1 X42.579 Y30.641 E.0253
G1 X42.924 Y31.37 E.0253
G1 X43.075 Y31.745 E.01265
G1 X43.331 Y32.51 E.0253
G1 X43.435 Y32.9 E.01265
G1 X43.597 Y33.691 E.0253
G1 X43.653 Y34.09 E.01265
G1 X43.718 Y34.886 E.02503
G1 X43.718 Y35.701 E.02557
G1 X43.694 Y36.104 E.01265
G1 X43.597 Y36.905 E.0253
G1 X43.435 Y37.696 E.0253
G1 X43.331 Y38.086 E.01265
G1 X43.075 Y38.851 E.0253
G1 X42.759 Y39.593 E.0253
G1 X42.579 Y39.954 E.01265
G1 X42.18 Y40.646 E.02503
G1 X41.717 Y41.317 E.02557
G1 X41.468 Y41.635 E.01265
G1 X40.939 Y42.233 E.02503
G1 X40.351 Y42.798 E.02557
G1 X40.043 Y43.059 E.01265
G1 X39.405 Y43.539 E.02503
G1 X38.716 Y43.975 E.02557
G1 X38.002 Y44.35 E.0253
G1 X37.634 Y44.516 E.01265
G1 X36.888 Y44.799 E.02502
G1 X36.104 Y45.027 E.02558
G1 X35.314 Y45.188 E.0253
G1 X34.914 Y45.245 E.01265
G1 X34.119 Y45.309 E.02503
G1 X33.303 Y45.31 E.02557
G1 X32.499 Y45.245 E.0253
G1 X31.702 Y45.115 E.0253
G1 X31.308 Y45.027 E.01265
G1 X30.533 Y44.802 E.0253
G1 X29.787 Y44.519 E.02503
G1 X29.411 Y44.35 E.01292
G1 X29.05 Y44.17 E.01265
G1 X28.359 Y43.771 E.02503
G1 X27.687 Y43.308 E.02557
G1 X27.062 Y42.798 E.0253
G1 X26.765 Y42.524 E.01265
G1 X26.212 Y41.949 E.02503
G1 X25.696 Y41.317 E.02557
G1 X25.238 Y40.653 E.0253
G1 X24.834 Y39.954 E.0253
G1 X24.488 Y39.225 E.0253
G1 X24.338 Y38.851 E.01265
G1 X24.202 Y38.471 E.01265
G1 X23.978 Y37.696 E.0253
G1 X23.816 Y36.905 E.0253
G1 X23.76 Y36.506 E.01265
G1 X23.695 Y35.71 E.02503
G1 X23.695 Y34.894 E.02557
G1 X23.76 Y34.09 E.0253
G1 X23.816 Y33.691 E.01265
G1 X23.978 Y32.9 E.0253
G1 X24.202 Y32.125 E.0253
G1 X24.338 Y31.745 E.01265
G1 X24.65 Y31.01 E.02503
G1 X25.029 Y30.288 E.02557
G1 X25.46 Y29.606 E.0253
G1 X25.696 Y29.279 E.01265
G1 X26.206 Y28.653 E.0253
G1 X26.765 Y28.072 E.0253
G1 X27.062 Y27.798 E.01265
G1 X27.68 Y27.293 E.02503
G1 X28.351 Y26.829 E.02557
G1 X28.696 Y26.62 E.01265
G1 X29.411 Y26.245 E.0253
G1 X30.153 Y25.929 E.0253
G1 X30.919 Y25.674 E.0253
G1 X31.308 Y25.569 E.01265
G1 X32.099 Y25.408 E.0253
G1 X32.9 Y25.311 E.0253
G1 X33.303 Y25.286 E.01265
G1 X34.045 Y25.285 E.02325
M204 S1000
G1 X43.344 Y37.329 F10800
M204 S800
G1 F1200
G1 X43.344 Y34.405 E.09167
G1 X43.261 Y33.745 E.02084
G1 X43.191 Y33.362 E.01222
G1 X43.106 Y32.981 E.01223
G1 X42.925 Y32.349 E.02062
G1 X42.925 Y38.247 E.18493
G1 X42.758 Y38.731 E.01604
G1 X42.506 Y39.328 E.02034
G1 X42.506 Y31.267 E.25275
G1 X42.087 Y30.453 E.02872
G1 X42.087 Y40.143 E.30383
G1 X41.668 Y40.804 E.02455
G1 X41.668 Y29.792 E.3453
G1 X41.249 Y29.232 E.02192
G1 X41.249 Y41.364 E.38039
G1 X40.83 Y41.85 E.02011
G1 X40.83 Y28.746 E.41086
G1 X40.411 Y28.315 E.01884
G1 X40.411 Y42.281 E.43787
G1 X39.992 Y42.658 E.01767
G1 X39.992 Y27.938 E.46151
G1 X39.573 Y27.599 E.0169
M73 P1 R24
G1 X39.573 Y42.997 E.48278
G1 X39.154 Y43.299 E.01619
G1 X39.154 Y27.297 E.50172
G1 X38.735 Y27.028 E.01561
G1 X38.735 Y43.567 E.51857
G1 X38.316 Y43.808 E.01515
G1 X38.316 Y26.787 E.53368
G1 X37.897 Y26.573 E.01476
G1 X37.897 Y44.023 E.54716
G1 X37.478 Y44.213 E.01442
G1 X37.478 Y26.383 E.55904
G1 X37.059 Y26.218 E.01412
M73 P2 R24
G1 X37.059 Y44.378 E.56938
G1 X36.64 Y44.521 E.01389
G1 X36.64 Y26.075 E.57838
G1 X36.221 Y25.952 E.01369
G1 X36.221 Y44.644 E.58608
G1 X35.802 Y44.747 E.01353
G1 X35.802 Y25.849 E.59253
G1 X35.383 Y25.766 E.01339
G1 X35.383 Y44.83 E.59776
G1 X34.964 Y44.895 E.01329
G1 X34.964 Y25.701 E.60181
G1 X34.545 Y25.655 E.01322
G1 X34.545 Y44.941 E.6047
G1 X34.126 Y44.969 E.01317
G1 X34.126 Y25.627 E.60644
G1 X33.707 Y25.617 E.01314
G1 X33.707 Y44.978 E.60705
G1 X33.288 Y44.969 E.01314
G1 X33.288 Y25.627 E.60645
G1 X32.869 Y25.655 E.01317
G1 X32.869 Y44.941 E.60471
G1 X32.45 Y44.895 E.01322
G1 X32.45 Y25.701 E.60183
G1 X32.032 Y25.765 E.01329
G1 X32.032 Y44.831 E.59779
G1 X31.77 Y44.783 E.00834
G1 X31.613 Y44.747 E.00506
G1 X31.613 Y25.849 E.59256
G1 X31.194 Y25.951 E.01353
G1 X31.194 Y44.645 E.58611
G1 X30.775 Y44.522 E.01369
G1 X30.775 Y26.074 E.57842
G1 X30.356 Y26.217 E.01388
M73 P3 R24
G1 X30.356 Y44.379 E.56943
G1 X29.937 Y44.214 E.01412
G1 X29.937 Y26.382 E.55909
G1 X29.518 Y26.571 E.01442
G1 X29.518 Y44.024 E.54722
G1 X29.099 Y43.81 E.01476
G1 X29.099 Y26.786 E.53375
G1 X28.68 Y27.027 E.01515
G1 X28.68 Y43.569 E.51865
G1 X28.261 Y43.3 E.0156
G1 X28.261 Y27.296 E.50181
G1 X27.842 Y27.597 E.01619
G1 X27.842 Y42.998 E.48289
G1 X27.423 Y42.659 E.0169
G1 X27.423 Y27.937 E.46162
G1 X27.004 Y28.313 E.01767
G1 X27.004 Y42.283 E.438
G1 X26.585 Y41.852 E.01883
G1 X26.585 Y28.744 E.411
G1 X26.166 Y29.229 E.0201
G1 X26.166 Y41.367 E.38056
G1 X25.747 Y40.807 E.02191
G1 X25.747 Y29.789 E.34548
G1 X25.328 Y30.449 E.02453
G1 X25.328 Y40.147 E.30405
G1 X24.909 Y39.333 E.02869
G1 X24.909 Y31.263 E.25304
G1 X24.655 Y31.865 E.0205
G1 X24.49 Y32.342 E.01582
G1 X24.49 Y38.254 E.18536
G1 X24.307 Y37.615 E.02084
G1 X24.222 Y37.234 E.01223
G1 X24.151 Y36.851 E.01222
G1 X24.071 Y36.212 E.02018
G1 X24.071 Y33.258 E.09263
M204 S1000
;WIPE_START
G1 F8640
G1 X24.071 Y36.212 E-.68213
G1 X24.113 Y36.547 E-.07787
;WIPE_END
G1 E-.04 F2100
G1 Z.6 F720
G1 X19.832 Y32.218 F10800
G1 Z.2 F720
G1 E.8 F2100
M204 S800
;TYPE:Perimeter
;WIDTH:0.419999
G1 F1200
G1 X20.213 Y30.833 E.04504
G1 X20.54 Y29.946 E.02965
G1 X21.15 Y28.64 E.04519
G1 X21.62 Y27.82 E.02965
G1 X22.44 Y26.634 E.0452
G1 X23.044 Y25.901 E.02978
G1 X23.699 Y25.206 E.02995
G1 X24.36 Y24.592 E.02829
G1 X24.758 Y24.256 E.01634
G1 X25.926 Y23.404 E.04533
G1 X26.734 Y22.913 E.02965
G1 X28.021 Y22.273 E.04505
G1 X29.36 Y21.767 E.0449
G1 X30.748 Y21.397 E.04505
G1 X31.683 Y21.23 E.02978
G1 X32.629 Y21.126 E.02981
G1 X34.048 Y21.09 E.04452
G1 X35.018 Y21.146 E.03047
G1 X35.965 Y21.266 E.02994
G1 X36.902 Y21.449 E.02993
G1 X37.821 Y21.694 E.0298
G1 X39.173 Y22.179 E.04505
G1 X40.469 Y22.798 E.04504
G1 X41.286 Y23.275 E.02965
G1 X42.464 Y24.105 E.0452
G1 X43.193 Y24.715 E.02978
G1 X43.882 Y25.376 E.02995
G1 X44.522 Y26.078 E.0298
G1 X45.398 Y27.217 E.04504
G1 X46.151 Y28.435 E.0449
G1 X46.781 Y29.726 E.04505
G1 X47.124 Y30.612 E.02978
G1 X47.407 Y31.519 E.0298
G1 X47.727 Y32.995 E.04736
G1 X47.889 Y34.41 E.04464
G1 X47.919 Y35.298 E.02786
G1 X47.887 Y36.248 E.0298
G1 X47.726 Y37.615 E.04315
G1 X47.632 Y38.14 E.01672
G1 X47.421 Y39.021 E.02843
G1 X47.275 Y39.526 E.01649
G1 X46.977 Y40.383 E.02843
G1 X46.781 Y40.87 E.01648
G1 X46.377 Y41.736 E.02994
G1 X45.693 Y42.93 E.04315
G1 X45.403 Y43.372 E.01657
G1 X44.525 Y44.514 E.04519
G1 X43.543 Y45.556 E.0449
G1 X42.457 Y46.497 E.04504
G1 X41.693 Y47.054 E.02965
G1 X40.461 Y47.803 E.0452
G1 X39.611 Y48.226 E.02978
G1 X38.733 Y48.592 E.0298
G1 X37.365 Y49.031 E.04505
G1 X35.981 Y49.327 E.04437
G1 X35.022 Y49.449 E.03033
M73 P4 R24
G1 X33.587 Y49.51 E.04504
G1 X32.157 Y49.425 E.0449
G1 X30.739 Y49.197 E.04505
G1 X29.868 Y48.981 E.02814
G1 X29.364 Y48.831 E.01648
G1 X28.465 Y48.509 E.02994
G1 X27.158 Y47.912 E.04505
G1 X25.918 Y47.187 E.04505
G1 X25.142 Y46.64 E.02978
G1 X24.403 Y46.042 E.0298
G1 X23.366 Y45.048 E.04505
G1 X22.437 Y43.958 E.0449
G1 X21.62 Y42.776 E.04504
G1 X21.15 Y41.956 E.02965
G1 X20.542 Y40.654 E.04505
G1 X20.068 Y39.297 E.04505
G1 X19.831 Y38.378 E.02978
G1 X19.656 Y37.439 E.02995
G1 X19.544 Y36.495 E.0298
G1 X19.496 Y35.059 E.04505
G1 X19.592 Y33.63 E.0449
G1 X19.822 Y32.278 E.04302
M204 S1000
G1 X19.463 Y32.137 F10800
M204 S800
;TYPE:External perimeter
G1 F1200
G1 X19.854 Y30.718 E.04614
G1 X20.192 Y29.801 E.03064
G1 X20.815 Y28.466 E.04619
G1 X21.301 Y27.619 E.03064
G1 X22.139 Y26.407 E.04619
G1 X22.761 Y25.651 E.03067
G1 X23.433 Y24.938 E.03074
G1 X24.137 Y24.285 E.03011
G1 X24.526 Y23.959 E.0159
G1 X25.717 Y23.09 E.04624
G1 X26.552 Y22.583 E.03064
G1 X27.87 Y21.927 E.04614
G1 X29.245 Y21.407 E.04609
G1 X30.667 Y21.028 E.04614
G1 X31.63 Y20.857 E.03067
G1 X32.603 Y20.75 E.0307
G1 X34.054 Y20.713 E.0455
G1 X35.053 Y20.77 E.03137
G1 X36.025 Y20.894 E.03074
G1 X36.987 Y21.082 E.03072
G1 X37.933 Y21.334 E.0307
G1 X39.318 Y21.831 E.04614
G1 X40.646 Y22.464 E.04614
G1 X41.49 Y22.958 E.03064
G1 X42.694 Y23.805 E.04619
G1 X43.444 Y24.434 E.03067
G1 X44.152 Y25.112 E.03074
G1 X44.812 Y25.836 E.03069
G1 X45.708 Y27.002 E.04614
G1 X46.482 Y28.252 E.04609
G1 X47.127 Y29.575 E.04614
G1 X47.48 Y30.487 E.03067
G1 X47.772 Y31.422 E.0307
G1 X48.102 Y32.951 E.04905
G1 X48.266 Y34.397 E.04563
G1 X48.296 Y35.298 E.02826
G1 X48.263 Y36.276 E.03069
G1 X48.094 Y37.719 E.04556
G1 X48.001 Y38.218 E.01589
G1 X47.777 Y39.153 E.03016
G1 X47.635 Y39.641 E.01594
G1 X47.318 Y40.55 E.03016
G1 X47.127 Y41.021 E.01594
G1 X46.712 Y41.909 E.03074
G1 X45.99 Y43.17 E.04556
G1 X45.71 Y43.591 E.01585
G1 X44.812 Y44.759 E.04619
G1 X43.804 Y45.829 E.04609
G1 X42.692 Y46.792 E.04614
G1 X41.902 Y47.368 E.03064
G1 X40.643 Y48.133 E.04619
G1 X39.767 Y48.569 E.03068
G1 X38.864 Y48.946 E.03069
G1 X37.462 Y49.396 E.04615
G1 X36.045 Y49.699 E.04545
G1 X35.054 Y49.825 E.03132
G1 X33.584 Y49.887 E.04614
G1 X32.116 Y49.801 E.04609
G1 X30.663 Y49.567 E.04614
G1 X29.733 Y49.336 E.03006
G1 X29.246 Y49.189 E.01594
G1 X28.323 Y48.858 E.03074
G1 X26.985 Y48.247 E.04614
G1 X25.714 Y47.504 E.04614
G1 X24.914 Y46.941 E.03068
G1 X24.153 Y46.325 E.0307
G1 X23.091 Y45.307 E.04614
G1 X22.138 Y44.188 E.04609
G1 X21.301 Y42.977 E.04614
G1 X20.815 Y42.129 E.03064
G1 X20.192 Y40.796 E.04614
G1 X19.707 Y39.407 E.04614
G1 X19.463 Y38.459 E.03067
G1 X19.283 Y37.496 E.03074
G1 X19.168 Y36.523 E.03069
G1 X19.119 Y35.053 E.04614
G1 X19.217 Y33.586 E.04609
G1 X19.453 Y32.196 E.04421
M204 S1000
G1 X19.845 Y32.016 F10800
;WIPE_START
G1 F8640
G1 X19.854 Y30.718 E-.35355
G1 X20.192 Y29.801 E-.22564
G1 X20.523 Y29.091 E-.18081
;WIPE_END
G1 E-.04 F2100
G1 Z.6 F720
G1 X22.65 Y33.034 F10800
G1 Z.2 F720
G1 E.8 F2100
M204 S800
;TYPE:Perimeter
G1 F1200
G1 X22.991 Y31.752 E.04157
G1 X23.263 Y31.029 E.02424
G1 X23.702 Y30.074 E.03295
G1 X24.127 Y29.333 E.02677
G1 X24.67 Y28.536 E.03025
G1 X25.268 Y27.827 E.02908
G1 X25.729 Y27.328 E.0213
G1 X26.542 Y26.577 E.03471
G1 X27.276 Y26.022 E.02885
G1 X28.096 Y25.505 E.03039
G1 X29.254 Y24.927 E.04058
G1 X30.534 Y24.467 E.04265
G1 X31.416 Y24.247 E.02851
G1 X32.764 Y24.051 E.04272
G1 X33.661 Y24.012 E.02814
G1 X34.591 Y24.046 E.02918
G1 X35.525 Y24.176 E.02955
G1 X36.221 Y24.302 E.0222
G1 X36.825 Y24.451 E.01948
G1 X37.687 Y24.737 E.0285
G1 X38.524 Y25.091 E.0285
G1 X39.102 Y25.392 E.02043
G1 X40.137 Y26.022 E.03797
G1 X40.809 Y26.527 E.02636
G1 X41.242 Y26.907 E.01806
G1 X41.749 Y27.399 E.02215
G1 X42.427 Y28.134 E.03136
G1 X43.014 Y28.915 E.03063
G1 X43.684 Y30.023 E.0406
G1 X44.081 Y30.853 E.02885
G1 X44.537 Y32.125 E.04238
G1 X44.76 Y33.018 E.02885
G1 X44.953 Y34.356 E.04238
G1 X44.993 Y35.275 E.02885
G1 X44.914 Y36.625 E.04238
G1 X44.822 Y37.208 E.01852
G1 X44.422 Y38.84 E.05267
G1 X44.076 Y39.753 E.03063
G1 X43.497 Y40.912 E.0406
G1 X42.975 Y41.737 E.03063
G1 X42.177 Y42.757 E.0406
G1 X41.541 Y43.422 E.02885
G1 X40.862 Y44.026 E.0285
G1 X39.709 Y44.855 E.04452
G1 X38.575 Y45.48 E.04059
G1 X37.751 Y45.835 E.02813
G1 X36.869 Y46.132 E.02918
G1 X35.55 Y46.432 E.04241
G1 X34.721 Y46.536 E.0262
G1 X33.672 Y46.584 E.03292
G1 X32.38 Y46.506 E.0406
G1 X31.471 Y46.361 E.02885
G1 X30.588 Y46.145 E.0285
G1 X29.726 Y45.859 E.02849
G1 X28.888 Y45.505 E.02851
G1 X28.515 Y45.311 E.01318
G1 X28.064 Y45.072 E.01601
G1 X27.314 Y44.6 E.02777
G1 X26.275 Y43.79 E.04132
G1 X25.598 Y43.149 E.02922
G1 X24.979 Y42.454 E.02918
G1 X24.431 Y41.728 E.02853
G1 X23.729 Y40.573 E.04238
G1 X23.166 Y39.332 E.04273
G1 X22.872 Y38.46 E.02885
G1 X22.685 Y37.709 E.02425
G1 X22.46 Y36.24 E.04661
G1 X22.42 Y35.321 E.02885
G1 X22.499 Y33.967 E.0425
G1 X22.638 Y33.092 E.02778
M204 S1000
G1 X23.015 Y33.123 F10800
M204 S800
