; generated by PrusaSlicer 2.5.0+win64 on 2023-01-19 at 13:23:56 UTC

; 

; external perimeters extrusion width = 0.45mm
; perimeters extrusion width = 0.45mm
; infill extrusion width = 0.45mm
; solid infill extrusion width = 0.45mm
; top infill extrusion width = 0.45mm
; first layer extrusion width = 0.42mm

M73 P0 R18
M201 X9000 Y9000 Z500 E10000 ; sets maximum accelerations, mm/sec^2
M203 X500 Y500 Z12 E120 ; sets maximum feedrates, mm / sec
M204 P2000 R1500 T2000 ; sets acceleration (P, T) and retract acceleration (R), mm/sec^2
M205 X10.00 Y10.00 Z0.20 E2.50 ; sets the jerk limits, mm/sec
M205 S0 T0 ; sets the minimum extruding and travel feed rate, mm/sec
M107
;TYPE:Custom
M862.3 P "MK2S" ; printer model check
M862.1 P0.4 ; nozzle diameter check
M115 U3.2.3 ; tell printer latest fw version
G90 ; use absolute coordinates
M83 ; extruder relative mode
M204 S2000 T1500 ; MK2 firmware only supports the old M204 format
M104 S215 ; set extruder temp
M140 S60 ; set bed temp
M190 S60 ; wait for bed temp
M109 S215 ; wait for extruder temp
G28 W ; home all without mesh bed level
G80 ; mesh bed leveling
G1 Z0.2 F720
G1 Y-2 F1000 ; go outside print area
G92 E0
G1 X60 E9 F1000 ; intro line
G1 X100 E12.5 F1000 ; intro line
G92 E0
G21 ; set units to millimeters
G90 ; use absolute coordinates
M83 ; use relative distances for extrusion
M900 K0.05 ; Filament gcode LA 1.5
M900 K30 ; Filament gcode LA 1.0
M107
;LAYER_CHANGE
;Z:0.2
;HEIGHT:0.2
;BEFORE_LAYER_CHANGE
G92 E0.0
;0.2


G1 E-.8 F2100
G1 Z.4 F720
;AFTER_LAYER_CHANGE
;0.2
G1 X18.157 Y18.429 F10800
G1 Z.2 F720
G1 E.8 F2100
M204 S800
;TYPE:Skirt/Brim
;WIDTH:0.42
G1 F1200
G1 X19.105 Y17.61 E.0393
G1 X20.132 Y16.89 E.0393
G1 X21.226 Y16.279 E.0393
G1 X23.245 Y15.492 E.06796
G1 X24.465 Y15.202 E.0393
G1 X25.707 Y15.037 E.0393
G1 X54.056 Y13.524 E.89013
G1 X56.133 Y13.742 E.06545
G1 X58.142 Y14.306 E.06545
G1 X60.029 Y15.2 E.06545
G1 X61.738 Y16.398 E.06545
G1 X63.17 Y17.805 E.06294
G1 X64.397 Y19.494 E.06545
G1 X65.322 Y21.365 E.06545
G1 X65.92 Y23.365 E.06545
G1 X66.165 Y25.283 E.06063
G1 X66.113 Y27.187 E.05972
G1 X65.721 Y29.237 E.06545
G1 X64.99 Y31.193 E.06545
G1 X63.94 Y32.997 E.06545
G1 X62.602 Y34.599 E.06545
G1 X61.014 Y35.954 E.06545
G1 X59.293 Y36.987 E.06294
G1 X57.273 Y37.774 E.06796
G1 X56.054 Y38.064 E.0393
G1 X54.811 Y38.228 E.0393
G1 X27.347 Y39.728 E.86241
G1 X25.627 Y39.696 E.05391
M73 P1 R18
G1 X24.055 Y39.455 E.04987
G1 X22.451 Y38.987 E.05238
G1 X21.062 Y38.378 E.04755
G1 X19.782 Y37.621 E.04664
G1 X18.464 Y36.595 E.05238
G1 X17.349 Y35.46 E.04987
G1 X16.43 Y34.254 E.04755
G1 X15.677 Y32.97 E.04664
G1 X15.167 Y31.825 E.0393
G1 X14.776 Y30.635 E.0393
G1 X14.507 Y29.41 E.0393
G1 X14.363 Y28.165 E.0393
G1 X14.343 Y26.992 E.03679
G1 X14.445 Y25.743 E.0393
G1 X14.672 Y24.51 E.0393
G1 X15.023 Y23.307 E.0393
G1 X15.494 Y22.145 E.0393
G1 X16.003 Y21.171 E.03447
G1 X16.578 Y20.268 E.03356
G1 X17.349 Y19.28 E.0393
G1 X18.116 Y18.473 E.0349
M204 S1000
; printing object pritlacne_kolecko_polovina.stl id:0 copy 0
;WIPE_START
G1 F8640
G1 X19.105 Y17.61 E-.30322
G1 X20.132 Y16.89 E-.28942
G1 X20.764 Y16.537 E-.16737
;WIPE_END
G1 E-.04 F2100
G1 Z.6 F720
G1 X20.624 Y20.971 F10800
G1 Z.2 F720
G1 E.8 F2100
M204 S800
;TYPE:Perimeter
;WIDTH:0.419999
G1 F1200
G1 X21.305 Y20.386 E.02816
G1 X22.039 Y19.875 E.02805
G1 X22.822 Y19.441 E.02805
G1 X23.644 Y19.088 E.02805
G1 X24.497 Y18.82 E.02805
G1 X25.374 Y18.64 E.02805
G1 X26.267 Y18.55 E.02814
G1 X27.023 Y18.545 E.02372
G1 X27.749 Y18.6 E.02283
G1 X28.635 Y18.751 E.02816
G1 X29.497 Y18.989 E.02805
G1 X30.33 Y19.314 E.02805
G1 X31.127 Y19.722 E.02805
G1 X31.878 Y20.208 E.02805
G1 X32.576 Y20.767 E.02805
G1 X33.214 Y21.394 E.02805
G1 X33.785 Y22.083 E.02805
G1 X34.284 Y22.826 E.02805
G1 X34.706 Y23.618 E.02814
G1 X34.997 Y24.316 E.02372
G1 X35.221 Y25.009 E.02283
G1 X35.417 Y25.885 E.02816
G1 X35.525 Y26.943 E.03334
G1 X35.538 Y27.668 E.02274
G1 X35.462 Y28.56 E.02805
G1 X35.297 Y29.439 E.02805
G1 X35.043 Y30.297 E.02805
G1 X34.705 Y31.125 E.02805
G1 X34.284 Y31.914 E.02805
G1 X33.783 Y32.66 E.02814
G1 X33.304 Y33.245 E.02372
G1 X32.798 Y33.769 E.02283
G1 X32.117 Y34.354 E.02816
G1 X31.383 Y34.865 E.02805
G1 X30.6 Y35.299 E.02805
G1 X29.778 Y35.652 E.02805
G1 X28.925 Y35.92 E.02805
G1 X28.048 Y36.1 E.02805
G1 X27.158 Y36.19 E.02805
G1 X26.264 Y36.19 E.02805
G1 X25.374 Y36.1 E.02805
G1 X24.497 Y35.92 E.02805
G1 X23.641 Y35.651 E.02814
G1 X22.944 Y35.357 E.02372
G1 X22.298 Y35.02 E.02283
G1 X21.544 Y34.532 E.02816
G1 X20.846 Y33.973 E.02805
G1 X20.208 Y33.346 E.02805
G1 X19.637 Y32.657 E.02805
G1 X19.138 Y31.914 E.02805
G1 X18.716 Y31.122 E.02814
G1 X18.425 Y30.424 E.02372
G1 X18.201 Y29.731 E.02283
G1 X18.005 Y28.855 E.02816
G1 X17.9 Y27.966 E.02805
G1 X17.885 Y27.072 E.02805
G1 X17.96 Y26.18 E.02805
G1 X18.125 Y25.301 E.02805
G1 X18.379 Y24.443 E.02805
G1 X18.717 Y23.615 E.02805
G1 X19.138 Y22.826 E.02805
G1 X19.639 Y22.08 E.02814
G1 X20.118 Y21.495 E.02372
G1 X20.582 Y21.015 E.02095
M204 S1000
G1 X20.365 Y20.697 F10800
M204 S800
G1 F1200
G1 X21.074 Y20.088 E.02932
G1 X21.84 Y19.555 E.02925
G1 X22.655 Y19.102 E.02925
G1 X23.513 Y18.734 E.02925
G1 X24.403 Y18.455 E.02925
G1 X25.317 Y18.267 E.02925
G1 X26.246 Y18.173 E.0293
G1 X27.036 Y18.168 E.02476
G1 X27.795 Y18.225 E.02387
G1 X28.717 Y18.382 E.02932
G1 X29.616 Y18.631 E.02925
G1 X30.485 Y18.97 E.02925
G1 X31.316 Y19.395 E.02925
G1 X32.099 Y19.901 E.02925
G1 X32.827 Y20.485 E.02925
G1 X33.492 Y21.139 E.02925
G1 X34.088 Y21.857 E.02925
G1 X34.607 Y22.631 E.02925
G1 X35.047 Y23.456 E.0293
G1 X35.351 Y24.185 E.02476
G1 X35.585 Y24.909 E.02386
G1 X35.789 Y25.822 E.02932
G1 X35.902 Y26.937 E.03513
G1 X35.915 Y27.681 E.02334
G1 X35.836 Y28.611 E.02925
G1 X35.664 Y29.527 E.02925
G1 X35.4 Y30.422 E.02925
G1 X35.046 Y31.285 E.02925
G1 X34.607 Y32.109 E.02925
G1 X34.087 Y32.885 E.02931
G1 X33.586 Y33.496 E.02476
G1 X33.057 Y34.043 E.02387
G1 X32.348 Y34.652 E.02932
G1 X31.582 Y35.185 E.02925
G1 X30.767 Y35.638 E.02925
G1 X29.909 Y36.006 E.02925
G1 X29.019 Y36.285 E.02925
G1 X28.106 Y36.473 E.02925
G1 X27.177 Y36.567 E.02925
G1 X26.245 Y36.567 E.02925
G1 X25.317 Y36.473 E.02925
G1 X24.403 Y36.285 E.02925
G1 X23.511 Y36.005 E.02931
G1 X22.783 Y35.698 E.02476
G1 X22.108 Y35.347 E.02386
G1 X21.323 Y34.839 E.02932
G1 X20.595 Y34.255 E.02925
G1 X19.93 Y33.601 E.02925
G1 X19.335 Y32.883 E.02925
G1 X18.815 Y32.109 E.02925
G1 X18.375 Y31.284 E.0293
G1 X18.071 Y30.555 E.02476
G1 X17.837 Y29.831 E.02386
G1 X17.633 Y28.918 E.02932
G1 X17.523 Y27.992 E.02925
G1 X17.507 Y27.059 E.02925
G1 X17.586 Y26.129 E.02925
G1 X17.758 Y25.213 E.02925
G1 X18.022 Y24.318 E.02925
G1 X18.376 Y23.455 E.02925
G1 X18.815 Y22.631 E.02925
G1 X19.336 Y21.855 E.02931
G1 X19.836 Y21.244 E.02476
G1 X20.323 Y20.74 E.02198
M204 S1000
G1 X20.106 Y20.422 F10800
M204 S800
;TYPE:External perimeter
G1 F1200
G1 X20.843 Y19.789 E.03047
G1 X21.64 Y19.234 E.03045
G1 X22.489 Y18.763 E.03045
G1 X23.382 Y18.38 E.03045
G1 X24.308 Y18.089 E.03045
G1 X25.259 Y17.894 E.03045
G1 X26.226 Y17.796 E.03047
G1 X27.049 Y17.791 E.02581
G1 X27.841 Y17.85 E.0249
G1 X28.799 Y18.014 E.03047
G1 X29.735 Y18.273 E.03045
G1 X30.64 Y18.625 E.03045
G1 X31.504 Y19.068 E.03045
G1 X32.32 Y19.595 E.03045
G1 X33.078 Y20.203 E.03045
G1 X33.77 Y20.883 E.03045
G1 X34.39 Y21.631 E.03045
G1 X34.931 Y22.437 E.03045
G1 X35.388 Y23.295 E.03047
G1 X35.705 Y24.054 E.02581
G1 X35.95 Y24.81 E.0249
G1 X36.161 Y25.758 E.03047
G1 X36.279 Y26.93 E.03693
G1 X36.292 Y27.694 E.02394
G1 X36.21 Y28.661 E.03045
G1 X36.031 Y29.616 E.03045
G1 X35.756 Y30.547 E.03045
G1 X35.388 Y31.446 E.03045
G1 X34.931 Y32.303 E.03045
G1 X34.39 Y33.11 E.03047
G1 X33.868 Y33.746 E.02581
G1 X33.317 Y34.318 E.0249
G1 X32.579 Y34.951 E.03047
G1 X31.782 Y35.506 E.03045
G1 X30.933 Y35.977 E.03045
G1 X30.041 Y36.36 E.03045
G1 X29.114 Y36.651 E.03045
G1 X28.163 Y36.846 E.03045
G1 X27.197 Y36.944 E.03045
G1 X26.225 Y36.944 E.03045
G1 X25.259 Y36.846 E.03045
G1 X24.308 Y36.651 E.03045
G1 X23.381 Y36.36 E.03047
G1 X22.623 Y36.04 E.02581
G1 X21.918 Y35.673 E.0249
G1 X21.102 Y35.145 E.03047
G1 X20.345 Y34.537 E.03045
G1 X19.652 Y33.857 E.03045
G1 X19.032 Y33.109 E.03045
G1 X18.491 Y32.303 E.03045
G1 X18.034 Y31.445 E.03047
G1 X17.717 Y30.686 E.02581
G1 X17.472 Y29.93 E.0249
G1 X17.261 Y28.982 E.03047
G1 X17.146 Y28.017 E.03045
G1 X17.13 Y27.046 E.03045
G1 X17.212 Y26.079 E.03045
G1 X17.391 Y25.124 E.03045
M73 P2 R18
G1 X17.666 Y24.193 E.03045
G1 X18.034 Y23.294 E.03045
G1 X18.491 Y22.437 E.03045
G1 X19.032 Y21.63 E.03047
G1 X19.554 Y20.994 E.02581
G1 X20.064 Y20.465 E.02302
M204 S1000
G1 X20.489 Y20.538 F10800
;WIPE_START
G1 F8640
G1 X20.843 Y19.789 E-.23821
G1 X21.64 Y19.234 E-.22423
G1 X22.489 Y18.763 E-.22423
G1 X22.781 Y18.638 E-.07333
;WIPE_END
G1 E-.04 F2100
G1 Z.6 F720
G1 X25.462 Y25.615 F10800
G1 Z.2 F720
G1 E.8 F2100
M204 S800
;TYPE:Perimeter
G1 F1200
G1 X25.857 Y25.384 E.01434
G1 X26.333 Y25.244 E.01556
G1 X26.78 Y25.215 E.01405
G1 X27.315 Y25.292 E.01696
G1 X27.779 Y25.487 E.01576
G1 X28.208 Y25.811 E.01687
G1 X28.548 Y26.237 E.01707
G1 X28.656 Y26.422 E.00671
G1 X28.833 Y26.953 E.01757
G1 X28.869 Y27.484 E.01668
G1 X28.775 Y28.021 E.01708
G1 X28.547 Y28.515 E.01708
G1 X28.194 Y28.944 E.01741
G1 X27.761 Y29.263 E.01687
G1 X27.29 Y29.455 E.01594
G1 X26.783 Y29.53 E.01605
G1 X26.325 Y29.497 E.01441
G1 X25.824 Y29.338 E.0165
G1 X25.481 Y29.147 E.0123
G1 X25.133 Y28.847 E.01441
G1 X24.835 Y28.436 E.01593
G1 X24.625 Y27.948 E.01666
G1 X24.548 Y27.451 E.01576
G1 X24.593 Y26.935 E.01625
G1 X24.737 Y26.49 E.01464
G1 X25 Y26.056 E.01593
G1 X25.41 Y25.645 E.01821
M204 S1000
G1 X25.598 Y25.981 F10800
M204 S800
G1 F1200
G1 X25.633 Y25.945 E.00159
G1 X26.063 Y25.711 E.01532
G1 X26.384 Y25.617 E.0105
G1 X26.733 Y25.589 E.01098
G1 X27.246 Y25.665 E.01627
G1 X27.628 Y25.838 E.01315
G1 X27.931 Y26.067 E.0119
G1 X28.223 Y26.428 E.01456
G1 X28.323 Y26.599 E.00621
G1 X28.466 Y27.062 E.01518
G1 X28.486 Y27.581 E.01629
G1 X28.386 Y27.988 E.01313
G1 X28.2 Y28.351 E.0128
G1 X27.854 Y28.743 E.01638
G1 X27.523 Y28.96 E.01242
G1 X27.169 Y29.096 E.0119
G1 X26.793 Y29.153 E.0119
G1 X26.415 Y29.131 E.0119
G1 X25.989 Y28.999 E.01399
G1 X25.714 Y28.851 E.00979
G1 X25.423 Y28.606 E.0119
G1 X25.178 Y28.28 E.0128
G1 X24.98 Y27.815 E.01585
G1 X24.927 Y27.382 E.01367
G1 X24.959 Y27.027 E.01118
G1 X25.071 Y26.664 E.0119
G1 X25.277 Y26.312 E.0128
G1 X25.556 Y26.024 E.01257
M204 S1000
G1 X25.857 Y26.249 F10800
M204 S800
;TYPE:External perimeter
G1 F1200
G1 X26.191 Y26.066 E.01195
G1 X26.653 Y25.962 E.01487
G1 X27.137 Y26.026 E.01531
G1 X27.411 Y26.147 E.0094
G1 X27.751 Y26.427 E.0138
G1 X27.99 Y26.776 E.01327
G1 X28.089 Y27.085 E.01016
G1 X28.11 Y27.54 E.01428
G1 X28.043 Y27.832 E.0094
G1 X27.909 Y28.11 E.00968
G1 X27.624 Y28.444 E.01376
G1 X27.376 Y28.613 E.0094
G1 X27.099 Y28.725 E.0094
G1 X26.804 Y28.776 E.00939
G1 X26.504 Y28.764 E.00939
G1 X26.153 Y28.66 E.01148
G1 X25.947 Y28.554 E.00728
G1 X25.713 Y28.366 E.00939
G1 X25.522 Y28.124 E.00968
G1 X25.333 Y27.643 E.01619
G1 X25.316 Y27.166 E.01498
G1 X25.406 Y26.838 E.01064
G1 X25.624 Y26.492 E.01283
G1 X25.815 Y26.292 E.00866
M204 S1000
G1 X25.812 Y25.871 F10800
;WIPE_START
G1 F8640
G1 X26.191 Y26.066 E-.1013
G1 X26.653 Y25.962 E-.10948
G1 X27.137 Y26.026 E-.11275
G1 X27.411 Y26.147 E-.06919
G1 X27.751 Y26.427 E-.10164
G1 X27.99 Y26.776 E-.09772
G1 X28.089 Y27.085 E-.07482
G1 X28.108 Y27.488 E-.0931
;WIPE_END
G1 E-.04 F2100
G1 Z.6 F720
G1 X31.544 Y20.127 F10800
G1 Z.2 F720
G1 E.8 F2100
M204 S800
;TYPE:Solid infill
;WIDTH:0.422458
G1 F1200
G1 X33.014 Y21.596 E.06558
G1 X33.558 Y22.252 E.02692
G1 X34.041 Y22.971 E.02733
G1 X34.256 Y23.375 E.01444
G1 X30.704 Y19.823 E.15853
G1 X30.214 Y19.572 E.01736
G1 X29.727 Y19.382 E.01651
G1 X34.712 Y24.368 E.22249
G1 X34.965 Y25.157 E.02616
G1 X28.935 Y19.127 E.26912
G1 X28.573 Y19.027 E.01184
G1 X28.241 Y18.97 E.01063
G1 X35.119 Y25.848 E.30696
G1 X35.201 Y26.467 E.01971
G1 X27.606 Y18.872 E.33896
G1 X27.034 Y18.837 E.0181
G1 X35.244 Y27.047 E.36643
G1 X35.253 Y27.593 E.01723
G1 X26.494 Y18.834 E.39094
G1 X26.281 Y18.832 E.00672
G1 X25.986 Y18.862 E.00936
G1 X35.218 Y28.094 E.41201
G1 X35.17 Y28.583 E.01551
G1 X25.499 Y18.912 E.43163
G1 X25.047 Y18.996 E.01452
G1 X35.085 Y29.035 E.44803
G1 X34.991 Y29.477 E.01428
G1 X24.601 Y19.088 E.46369
G1 X24.19 Y19.213 E.01357
M73 P2 R17
G1 X34.868 Y29.892 E.47658
G1 X34.738 Y30.298 E.01346
G1 X23.781 Y19.341 E.48898
G1 X23.403 Y19.499 E.01295
M73 P3 R17
G1 X34.582 Y30.678 E.49893
G1 X34.421 Y31.055 E.01291
G1 X23.027 Y19.661 E.50854
G1 X22.675 Y19.846 E.01254
G1 X34.235 Y31.405 E.5159
G1 X34.048 Y31.755 E.01252
G1 X29.074 Y26.781 E.22201
G1 X28.955 Y26.392 E.01282
G1 X28.674 Y25.908 E.01768
G1 X28.372 Y25.574 E.0142
G1 X27.921 Y25.242 E.01766
G1 X27.506 Y25.057 E.01437
G1 X27.297 Y25.004 E.00679
G1 X22.33 Y20.037 E.22167
G1 X22.002 Y20.246 E.01227
G1 X26.69 Y24.934 E.20922
G1 X26.603 Y24.925 E.00276
G1 X26.203 Y24.984 E.01275
G1 X21.686 Y20.466 E.20162
G1 X21.379 Y20.696 E.0121
G1 X25.795 Y25.112 E.19712
G1 X25.635 Y25.171 E.00538
G1 X25.442 Y25.296 E.00726
G1 X21.09 Y20.944 E.19423
G1 X20.803 Y21.193 E.01201
G1 X25.124 Y25.515 E.19287
G1 X24.862 Y25.79 E.01198
G1 X20.539 Y21.466 E.19296
G1 X20.28 Y21.744 E.01198
G1 X24.629 Y26.093 E.19409
G1 X24.454 Y26.455 E.01269
G1 X20.038 Y22.039 E.19708
G1 X19.804 Y22.342 E.01207
G1 X24.327 Y26.865 E.20186
G1 X24.289 Y27.018 E.00498
G1 X24.275 Y27.35 E.01048
G1 X19.466 Y22.54 E.21463
M204 S1000
;WIPE_START
G1 F8640
G1 X21.793 Y24.868 E-.76
;WIPE_END
G1 E-.04 F2100
G1 Z.6 F720
G1 X28.964 Y27.207 F10800
G1 Z.2 F720
G1 E.8 F2100
M204 S800
G1 F1200
G1 X33.834 Y32.077 E.21735
G1 X33.618 Y32.399 E.01221
G1 X29.097 Y27.877 E.20179
G1 X29.047 Y28.101 E.00724
G1 X28.972 Y28.29 E.0064
G1 X33.384 Y32.701 E.19688
G1 X33.142 Y32.996 E.01204
G1 X28.795 Y28.648 E.19404
G1 X28.557 Y28.947 E.01205
G1 X32.883 Y33.274 E.19309
G1 X32.619 Y33.547 E.01198
G1 X28.294 Y29.221 E.19305
G1 X27.989 Y29.453 E.01209
G1 X32.332 Y33.796 E.19384
G1 X32.043 Y34.044 E.01201
G1 X27.626 Y29.627 E.19715
G1 X27.36 Y29.73 E.009
G1 X27.216 Y29.754 E.00461
G1 X31.736 Y34.274 E.20175
G1 X31.42 Y34.494 E.01217
G1 X26.556 Y29.63 E.21708
M204 S1000
;WIPE_START
G1 F8640
G1 X28.883 Y31.958 E-.76
;WIPE_END
G1 E-.04 F2100
G1 Z.6 F720
G1 X31.217 Y34.828 F10800
G1 Z.2 F720
G1 E.8 F2100
M204 S800
M73 P4 R17
G1 F1200
G1 X26.121 Y29.732 E.22743
G1 X25.865 Y29.667 E.00833
G1 X25.398 Y29.436 E.01643
G1 X25.054 Y29.17 E.01373
G1 X24.722 Y28.793 E.01585
G1 X24.579 Y28.557 E.00872
G1 X24.352 Y28.026 E.01823
G1 X24.34 Y27.951 E.00238
G1 X19.374 Y22.985 E.22164
G1 X19.187 Y23.335 E.01252
G1 X30.747 Y34.894 E.5159
G1 X30.395 Y35.08 E.01254
G1 X19.001 Y23.685 E.50853
G1 X18.84 Y24.062 E.01291
G1 X30.019 Y35.241 E.49893
G1 X29.641 Y35.399 E.01295
G1 X18.684 Y24.443 E.48898
G1 X18.554 Y24.849 E.01346
G1 X29.232 Y35.527 E.47658
G1 X28.821 Y35.652 E.01357
G1 X18.431 Y25.263 E.46368
G1 X18.337 Y25.705 E.01428
G1 X28.375 Y35.744 E.44802
G1 X27.923 Y35.828 E.01452
G1 X18.252 Y26.157 E.43162
G1 X18.204 Y26.646 E.01551
G1 X27.436 Y35.878 E.41201
G1 X27.144 Y35.907 E.00926
G1 X26.929 Y35.907 E.00679
G1 X18.169 Y27.147 E.39097
G1 X18.178 Y27.693 E.01723
G1 X26.392 Y35.907 E.36661
G1 X25.807 Y35.86 E.01851
G1 X18.221 Y28.273 E.33859
G1 X18.303 Y28.892 E.01971
G1 X25.183 Y35.772 E.30704
G1 X24.498 Y35.623 E.02213
G1 X18.458 Y29.583 E.26958
G1 X18.71 Y30.373 E.02616
G1 X23.711 Y35.374 E.2232
G1 X23.065 Y35.101 E.02215
M73 P5 R17
G1 X22.724 Y34.923 E.01211
G1 X19.166 Y31.365 E.15881
G1 X19.381 Y31.769 E.01443
G1 X19.864 Y32.488 E.02733
G1 X20.409 Y33.145 E.02695
G1 X21.877 Y34.613 E.06554
M204 S1000
; stop printing object pritlacne_kolecko_polovina.stl id:0 copy 0
; printing object pritlacne_kolecko_polovina.stl id:0 copy 1
;WIPE_START
G1 F8640
G1 X20.409 Y33.145 E-.47952
G1 X19.864 Y32.488 E-.19718
G1 X19.663 Y32.188 E-.08331
;WIPE_END
G1 E-.04 F2100
G1 Z.6 F720
G1 X45.101 Y27.38 F10800
G1 Z.2 F720
G1 E.8 F2100
M204 S800
;TYPE:Perimeter
;WIDTH:0.419999
G1 F1200
G1 X44.996 Y26.492 E.02805
G1 X44.981 Y25.597 E.02805
